X:1
T:Birdstown, 87.87.887
T:Birdstown, 87.87.887
T:Charles Hutchinson Gabriel, 1912
T:Public Domain Courtesy of the Cyber Hymnal™
C:Charles Hutchinson Gabriel, 1912
Z:Public Domain
Z:Courtesy of the Cyber Hymnal™
%%score ( 1 2 ) ( 3 4 )
L:1/8
Q:1/4=114
M:4/4
K:Ab
V:1 treble 
V:2 treble 
V:3 bass 
V:4 bass 
V:1
 E2 | [CA]3 [CA] [EA]2 [EB]2 | [Ec]2 [EA]2 [DF]2 [FB]2 | [EA]3 [EA] [DG]2 [DG]2 | [CA]4 [CA]2 E2 | %5
 [EB]3 [EB] [EB]2 [Ec]2 | [Ed]2 [EB]2 [EG]2 [EB]2 | [EA]3 [EB] [Ec]2 [A=d]2 | [Ge]4 [Ge]2 E2 | %9
 [B,F]3 [B,F] [B,F]2 [B,F]2 x8 | [EG]2 [EG]2 [EG]2 E2 | [EA]3 [EA] [EA]2 [EA]2 | %12
 [EB]2 [EB]2 [EB]2 E2 | [Ec]4 [Ed]4 | [Ee]4 [Fd]4 | B8 | [EA]6 |] %17
V:2
 E2 | x8 | x8 | x8 | x6 E2 | x8 | x8 | x8 | x6 E2 | x16 | x6 E2 | x8 | x6 E2 | x8 | x8 | %15
 (A2 G2 F2 E2) | x6 |] %17
V:3
 E,2 | [A,,E,]3 [A,,E,] [C,A,]2 [E,G,]2 | A,2 [C,A,]2 [D,A,]2 [D,D]2 | %3
 [E,C]3 [E,C] [E,B,]2 [E,B,]2 | [A,,A,]4 [A,,A,]2 [C,A,]2 | [E,G,]3 [E,G,] [E,G,]2 [E,A,]2 | %6
 [E,B,]2 [E,G,]2 [E,B,]2 x2 | [D,G,]2 x6 | [C,A,]3 [E,G,] A,2 [F,B,]2 | %9
 [E,B,]4 [E,B,]2 [E,G,]2 [=D,A,]3 [D,A,] [D,A,]2 [D,A,]2 | [_D,B,]2 [D,B,]2 [D,B,]2 [D,B,]2 | %11
 [C,A,]3 [C,A,] [C,A,]2 [C,A,]2 | [B,,E,G,]2 [B,,E,G,]2 [B,,E,G,]2 [B,,E,G,]2 | [A,,A,]4 [B,,G,]4 | %14
 [C,A,]4 [D,A,]4 | [E,D]8 | [A,,C]6 |] %17
V:4
 E,2 | x8 | A,2 x6 | x8 | x8 | x8 | x8 | x8 | x4 A,2 x2 | x16 | x8 | x8 | x8 | x8 | x8 | x8 | x6 |] %17

